src/components/00-materials/images-raw/Medal.svg

<svg width="96" height="96" viewBox="0 0 96 96" fill="none" xmlns="http://www.w3.org/2000/svg">
<path d="M48 84.5801C63.464 84.5801 76 72.0441 76 56.5801C76 41.1161 63.464 28.5801 48 28.5801C32.536 28.5801 20 41.1161 20 56.5801C20 72.0441 32.536 84.5801 48 84.5801Z" stroke="#00008F" stroke-width="2" stroke-linecap="round" stroke-linejoin="round"/>
<path d="M48 78.5801C60.1503 78.5801 70 68.7303 70 56.5801C70 44.4298 60.1503 34.5801 48 34.5801C35.8497 34.5801 26 44.4298 26 56.5801C26 68.7303 35.8497 78.5801 48 78.5801Z" stroke="#00008F" stroke-width="2" stroke-linecap="round" stroke-linejoin="round"/>
<path d="M60.57 31.55L69 13M48 44L51.59 50.96L59 52.4L53.82 58.15L54.8 66L48 62.59L41.2 66L42.18 58.15L37 52.4L44.41 50.96L48 44ZM60.57 13L52.82 29C57.9774 29.9002 62.7791 32.2283 66.68 35.72L77.49 13H60.57ZM18.67 13L28.73 36.27C32.7973 32.4321 37.9207 29.9 43.44 29L36.42 13H18.67ZM27 13L35.43 31.55L27 13Z" stroke="#00008F" stroke-width="2" stroke-linecap="round" stroke-linejoin="round"/>
</svg>

<svg width="96" height="96" viewBox="0 0 96 96" fill="none" xmlns="http://www.w3.org/2000/svg"><path d="M48 84.58c15.464 0 28-12.536 28-28s-12.536-28-28-28-28 12.536-28 28 12.536 28 28 28z" stroke="#00008F" stroke-width="2" stroke-linecap="round" stroke-linejoin="round"/><path d="M48 78.58c12.15 0 22-9.85 22-22s-9.85-22-22-22-22 9.85-22 22 9.85 22 22 22z" stroke="#00008F" stroke-width="2" stroke-linecap="round" stroke-linejoin="round"/><path d="M60.57 31.55L69 13M48 44l3.59 6.96L59 52.4l-5.18 5.75.98 7.85-6.8-3.41L41.2 66l.98-7.85L37 52.4l7.41-1.44L48 44zm12.57-31l-7.75 16a28 28 0 0113.86 6.72L77.49 13H60.57zm-41.9 0l10.06 23.27A28 28 0 0143.44 29l-7.02-16H18.67zM27 13l8.43 18.55L27 13z" stroke="#00008F" stroke-width="2" stroke-linecap="round" stroke-linejoin="round"/></svg>
